X:33
T:Midnight On The Water
Z:robin.beech@mcgill.ca
R:waltz
M:3/4
L:1/8
K:D
DE |: F2 F2- FE | F2 F2- FE| F A3- AB| A3 F ED |
F d3 (3BdB | A F3 DE | F A2 F (3EFE |1 D4 DE :|2 D4 (3ABc |:
d2- dc de| dc BA Bc| d3 B AF| D4 d2|
e e3 f2| e2 d3 e|f a3 f2|gfed Bc|
d3 cde| dc BA Bc | d3 B AF | D4 DE |
F d3 (3BdB | A F3 DE | F A2F (3EFE | D4 ||
